assets/icones/youtubeIcon.svg

<svg width="19" height="13" viewBox="0 0 19 13" fill="none" xmlns="http://www.w3.org/2000/svg">
<path d="M18.6779 2.80505C18.6779 2.80505 18.5021 1.53069 17.9607 0.971119C17.2751 0.234657 16.5087 0.231047 16.1572 0.187726C13.64 -1.03286e-07 9.86069 0 9.86069 0H9.85366C9.85366 0 6.07437 -1.03286e-07 3.55718 0.187726C3.20562 0.231047 2.43921 0.234657 1.75366 0.971119C1.21226 1.53069 1.03999 2.80505 1.03999 2.80505C1.03999 2.80505 0.857178 4.30325 0.857178 5.79783V7.19855C0.857178 8.69314 1.03647 10.1913 1.03647 10.1913C1.03647 10.1913 1.21226 11.4657 1.75015 12.0253C2.43569 12.7617 3.33569 12.7365 3.73647 12.8159C5.17788 12.9567 9.85718 13 9.85718 13C9.85718 13 13.64 12.9928 16.1572 12.8087C16.5087 12.7653 17.2751 12.7617 17.9607 12.0253C18.5021 11.4657 18.6779 10.1913 18.6779 10.1913C18.6779 10.1913 18.8572 8.69675 18.8572 7.19855V5.79783C18.8572 4.30325 18.6779 2.80505 18.6779 2.80505ZM7.99741 8.89892V3.70397L12.8595 6.31047L7.99741 8.89892Z" fill="white"/>
</svg>

<svg width="19" height="13" fill="none" xmlns="http://www.w3.org/2000/svg"><path d="M18.678 2.805s-.176-1.274-.717-1.834c-.686-.736-1.452-.74-1.804-.783C13.64 0 9.861 0 9.861 0h-.007s-3.78 0-6.297.188C3.206.23 2.44.235 1.754.97c-.542.56-.714 1.834-.714 1.834S.857 4.303.857 5.798v1.4c0 1.495.18 2.993.18 2.993s.175 1.275.713 1.834c.686.737 1.586.711 1.986.79 1.442.142 6.121.185 6.121.185s3.783-.007 6.3-.191c.352-.044 1.118-.047 1.804-.784.541-.56.717-1.834.717-1.834s.18-1.494.18-2.992V5.798c0-1.495-.18-2.993-.18-2.993zM7.998 8.9V3.704L12.86 6.31 7.997 8.9z" fill="#fff"/></svg>
